!!!OTL: GESTERN ABEND GING ICH AUS
!!!ARE: Europa, Mitteleuropa, Deutschland, Schlesien, Fraustadt
!!!SCT: E1886
!!!YEM: Copyright 1995, estate of Helmut Schaffrath.
**kern
*ICvox
*Ivox
*M2/4
*k[f#]
*G:
=1
{8.b
16b
8.a
16a
=2
8g
8b
4d}
=3
{8.f#
16g
8.a
16f#
=4
4a
4g}
=5
{8.b
16b
8.a
16a
=6
8g
8b
4d}
=7
{8.f#
16g
8.a
16f#
=8
4a
4g}
=9
{8a
8a
4dd
=10
8a
8a
4dd}
=11
{8a
8a
8a
8a
=12
8dd
8a
8a
16r}
{16a
=13
8g
8g
8f#
8f#
=14
8e
8e
4d}
==
!!!AGN: Kinder - Lied, Spiel, Reigen
!!!ONB: ESAC (Essen Associative Code) Database: ERK3
!!!AMT: simple duple
!!!AIN: vox
!!!EED: Helmut Schaffrath
!!!EEV: 1.0
*-
